X: 307
T:A l'ombre d'ung buissonnet
N: Derived from Jos2702-A_lombre_dung_buissonnet.krn
C: Josquin des Prez
%%abc-version 2.0
%%abcx-abcm2ps-target-version 5.9.1 (29 Sep 2008)
%%abc-creator hum2abc beta
%%abcx-conversion-date 2019/02/12 16:15:54
%%abc-edited-by Jesse Rodin
%%abc-edited-by Jesse Rodin; Victoria Chang 2011/05/30/
%%abcx-initial-encoding-date 2011/05/30/
%%humdrum-veritas 4288846628
%%humdrum-veritas-data 177117967
%%linebreak <none>
%%barnumbers 0
L: 1/4
M: 2/1
Q: 1/2=120
V: 1 clef=treble
V: 2 clef=treble-8
V: 3 clef=bass
K: F
[V:1] D4D4 | 
[V:2] z8 | 
[V:3] z8 | 
[V:1] G6G2 | 
[V:2] z8 | 
[V:3] z8 | 
[V:1] G4G4 | 
[V:2] G4G4 | 
[V:3] z8 | 
[V:1] A4G2A2- | 
[V:2] c6c2 | 
[V:3] z8 | 
[V:1] AGAFG2G2 | 
[V:2] c4c4 | 
[V:3] C,4C,4 | 
[V:1] F3GA2B2 | 
[V:2] d4c2d2- | 
[V:3] F,6F,2 | 
[V:1] F2B3AAG | 
[V:2] dcdBc2c2 | 
[V:3] F,4F,4 | 
[V:1] B4z2B2- | 
[V:2] B3cd2_e2 | 
[V:3] G,4F,2G,2- | 
[V:1] BABGA2A2 | 
[V:2] B2_e3ddc | 
[V:3] G,F,G,_E,F,2F,2 | 
[V:1] G4z2G2- | 
[V:2] _e2c2d2B2 | 
[V:3] _E,4D,2E,2- | 
[V:1] GFGEF2F2 | 
[V:2] z2c3=B=BA | 
[V:3] E,D,_E,C,D,2D,2 | 
[V:1] E2G3FED | 
[V:2] c3BG2A2- | 
[V:3] C,8- | 
[V:1] C2F4E2 | 
[V:2] AGAFG2G2 | 
[V:3] C,8 | 
[V:1] F8 | 
[V:2] F8 | 
[V:3] C3CC2C2 | 
[V:1] z8 | 
[V:2] f3ff2f2 | 
[V:3] D3CB,2A,2 | 
[V:1] B3BB2B2 | 
[V:2] g3fe2d2 | 
[V:3] G,3G,G,2G,2 | 
[V:1] c3BA2G2 | 
[V:2] c4c2c2 | 
[V:3] A,3G,F,2E,2 | 
[V:1] F2DEFGA2- | 
[V:2] d2f3edc | 
[V:3] D,4D,2D,2 | 
[V:1] A2G4^F2 | 
[V:2] B2c2A4 | 
[V:3] E,2C,2D,4 | 
[V:1] G4z4 | 
[V:2] G8 | 
[V:3] G,,8- | 
[V:1] D4D2G2- | 
[V:2] z4G4 | 
[V:3] G,,8 | 
[V:1] G2G2G2G2 | 
[V:2] G2c4c2 | 
[V:3] C,4C,4 | 
[V:1] A4z4 | 
[V:2] c2c2d4 | 
[V:3] F,3F,F,2F,2 | 
[V:1] D4D2G2- | 
[V:2] z4G4 | 
[V:3] G,4z4 | 
[V:1] G2G2G2G2 | 
[V:2] G2c4c2 | 
[V:3] C,4C,4 | 
[V:1] A4z4 | 
[V:2] c2c2d4 | 
[V:3] F,3F,F,2F,2 | 
[V:1] D4D2G2- | 
[V:2] z4G4 | 
[V:3] G,4z4 | 
[V:1] G2G2G2G2 | 
[V:2] G2c4c2 | 
[V:3] C,4C,4 | 
[V:1] A4z2A2 | 
[V:2] c2c2d4 | 
[V:3] F,6F,2 | 
[V:1] c2A2B4 | 
[V:2] c2d3cdB | 
[V:3] F,2F,2G,4 | 
[V:1] A4z2G2 | 
[V:2] c2c2B2d2- | 
[V:3] z2F,2G,2G,2 | 
[V:1] A2F2G4 | 
[V:2] dcf4e2 | 
[V:3] F,4z2C,2 | 
[V:1] F4z2F2 | 
[V:2] f4z2F2 | 
[V:3] D,4D,4 | 
[V:1] E2F3EED | 
[V:2] A4G4 | 
[V:3] C,8 | 
[V:1] F8 | 
[V:2] F8 | 
[V:3] C3CC2C2 | 
[V:1] z8 | 
[V:2] f3ff2f2 | 
[V:3] D3CB,2A,2 | 
[V:1] B3BB2B2 | 
[V:2] g3fe2d2 | 
[V:3] G,3G,G,2G,2 | 
[V:1] c3BA2G2 | 
[V:2] c3cc2c2 | 
[V:3] A,3G,F,2E,2 | 
[V:1] F2F2F2F2 | 
[V:2] d3cB2A2 | 
[V:3] D,2D,2D,2D,2 | 
[V:1] G3FE2D2 | 
[V:2] G3GG2G2 | 
[V:3] E,3D,C,2B,,2 | 
[V:1] C2C2C2C2 | 
[V:2] A3GF2E2 | 
[V:3] A,,2A,,2A,,2A,,2 | 
[V:1] D3CB,2A,2 | 
[V:2] D4z2D2 | 
[V:3] B,,3C,D,E,F,2 | 
[V:1] G,2B,2A,4 | 
[V:2] E2G3^F^FE | 
[V:3] G,2G,,2D,4 | 
[V:1] G,8- | 
[V:2] G8 | 
[V:3] G,,4z4 | 
[V:1] G,8 | 
[V:2] z4D4- | 
[V:3] G,,6A,,2 | 
[V:1] z8 | 
[V:2] D2E2F2G2 | 
[V:3] B,,2C,2D,2E,2 | 
[V:1] z8 | 
[V:2] A2B2c4- | 
[V:3] F,6E,2 | 
[V:1] z8 | 
[V:2] c2B2G4 | 
[V:3] C,4E,2F,2 | 
[V:1] z8 | 
[V:2] B3cd2G2 | 
[V:3] G,3F,D,2B,2- | 
[V:1] z8 | 
[V:2] B4A4 | 
[V:3] B,A,G,4^F,2 | 
[V:1] z8 | 
[V:2] G4z4 | 
[V:3] G,8- | 
[V:1] z4D4- | 
[V:2] G6A2 | 
[V:3] G,8 | 
[V:1] D2E2F2G2 | 
[V:2] B2c2d2e2 | 
[V:3] z8 | 
[V:1] A2B2c4- | 
[V:2] f6e2 | 
[V:3] z8 | 
[V:1] c2B2G4 | 
[V:2] c4e2f2 | 
[V:3] z8 | 
[V:1] B3cd2G2 | 
[V:2] g3fd2b2- | 
[V:3] z8 | 
[V:1] B4A4 | 
[V:2] bag4^f2 | 
[V:3] z8 | 
[V:1] G8 | 
[V:2] g4z4 | 
[V:3] G,6G,2 | 
[V:1] z8 | 
[V:2] d6d2 | 
[V:3] G,2G,2G,2G,2 | 
[V:1] A3AA2A2 | 
[V:2] d2d2d2d2 | 
[V:3] F,6E,D, | 
[V:1] A2A2G4- | 
[V:2] c6BA | 
[V:3] F,3E,C,3D, | 
[V:1] G2FEDCG2- | 
[V:2] G3AB2c2 | 
[V:3] E,F,G,4C,2 | 
[V:1] G2F4E2 | 
[V:2] F4G4 | 
[V:3] D,4C,4 | 
[V:1] F8 | 
[V:2] F8 | 
[V:3] C3CC2C2 | 
[V:1] z8 | 
[V:2] f3ff2f2 | 
[V:3] D3CB,2A,2 | 
[V:1] B3BB2B2 | 
[V:2] g3fe2d2 | 
[V:3] G,3G,G,2G,2 | 
[V:1] c3BA2G2 | 
[V:2] c2ABcdec | 
[V:3] A,3G,F,2E,2 | 
[V:1] F2DEFGA2- | 
[V:2] d2f3edc | 
[V:3] D,4D,2D,2 | 
[V:1] A2G4^F2 | 
[V:2] B2c2A4 | 
[V:3] E,2C,2D,4 | 
[V:1] G4z4 | 
[V:2] G4g2g2 | 
[V:3] G,,8 | 
[V:1] B3BB2B2 | 
[V:2] g3fe2d2 | 
[V:3] G,3G,G,2G,2 | 
[V:1] c3BA2G2 | 
[V:2] c2ABcdec | 
[V:3] A,3G,F,2E,2 | 
[V:1] F2DEFGA2- | 
[V:2] d2f3edc | 
[V:3] D,4D,2D,2 | 
[V:1] A2G4^F2 | 
[V:2] B2c2A4 | 
[V:3] E,2C,2D,4 | 
[V:1] G2B2AGA2- | 
[V:2] G2d2fedc | 
[V:3] G,,4z2D,2 | 
[V:1] A2G4^F2 | 
[V:2] B2c2A4 | 
[V:3] E,2C,2D,4 | 
[V:1] G8 |]  
[V:2] G8 |]  
[V:3] G,,8 |]  



